X:15498
%10775
T:Miko Doyle's
T:Old Favourite, The
R:slide
H:Played in G or in A
D:Sean Ryan: Siuil Uait
Z:id:hn-slide-22
M:6/8
K:Cmaj
~E3 EDE|GED C2G|GAG GAG|GAG E2D|
~E3 EDE|GED C2G|GcA GED|1 CDC C2D:|2 CDC CEG||
|:~c3 BcB|ABA G2E|GAG GAG|GAG E2G|
~c3 BcB|ABA G2E|1 GcA GED|CDC CEG:|2 GcA GcA|GcA GED||
"variations"
|:E2E EDC|GED C2G|GAG G2E|GAG E2D|
E2E E
